app/client/src/assets/icons/blueprintjs/16px/flame.svg

<?xml version="1.0" encoding="UTF-8"?>
<svg width="16px" height="16px" viewBox="0 0 16 16" version="1.1" xmlns="http://www.w3.org/2000/svg" xmlns:xlink="http://www.w3.org/1999/xlink">
    <!-- Generator: Sketch 49.1 (51147) - http://www.bohemiancoding.com/sketch -->
    <title>Artboard</title>
    <desc>Created with Sketch.</desc>
    <defs></defs>
    <g id="Artboard" stroke="none" stroke-width="1" fill="none" fill-rule="evenodd">
        <path d="M9.21672585,0 C9.21672585,1.36752137 9.58467001,2.46153846 10.3205583,3.28205128 C12.7735194,5.1965812 14,7.38461538 14,9.84615385 C14,12.5811966 12.5282233,14.6324786 9.58467001,16 C11.75,13.6 11.4243908,12.6153846 9.21672585,9.6 C6.875,10.8 7.25,11.6 7.625,13.2 C6.83931924,13.2 6.125,13.2 5.75,12.8 C5.75,13.3470085 6.64753691,14.8 7.21431924,16 C4.27076592,15.1794872 1.1219542,10.2564103 2.2257867,9.84615385 C2.96167503,9.57264957 3.82021142,9.70940171 4.80139586,10.2564103 C3.57491531,5.33333333 5.04669197,1.91452991 9.21672585,0 Z" id="Path-3" fill="#000000"></path>
    </g>
</svg>

<svg xmlns="http://www.w3.org/2000/svg" width="16" height="16"><path fill-rule="evenodd" d="M9.217 0c0 1.368.368 2.462 1.104 3.282C12.774 5.197 14 7.385 14 9.846c0 2.735-1.472 4.786-4.415 6.154 2.165-2.4 1.84-3.385-.368-6.4-2.342 1.2-1.967 2-1.592 3.6-.786 0-1.5 0-1.875-.4 0 .547.898 2 1.464 3.2-2.943-.82-6.092-5.744-4.988-6.154.736-.273 1.594-.137 2.575.41C3.575 5.333 5.047 1.915 9.217 0Z"/></svg>
